symbols/web/folder_open/materialsymbolsoutlined/folder_open_wght100gradN25_48px.svg

<svg xmlns="http://www.w3.org/2000/svg" height="48" width="48"><path d="M9 37.4q-1 0-1.7-.7T6.6 35V15.3q0-1 .85-1.85.85-.85 1.85-.85h13l1.7 1.7h14.7q.7 0 1.3.275.6.275.95.825h-17.4l-1.7-1.7H9.3q-.7 0-1.15.45-.45.45-.45 1.15v19.4q0 .55.275.9t.725.6l4.9-17.1h32.1L41 35.65q-.3.85-.925 1.3-.625.45-1.525.45Zm.85-1.1h29.8l4.55-16.1H14.4Zm0 0 4.55-16.1-4.55 16.1ZM7.7 15.4v-1.7 1.7Z"/></svg>

<svg xmlns="http://www.w3.org/2000/svg" height="48" width="48"><path d="M9 37.4Q8 37.4 7.3 36.7Q6.6 36 6.6 35V15.3Q6.6 14.3 7.45 13.45Q8.3 12.6 9.3 12.6H22.3L24 14.3H38.7Q39.4 14.3 40 14.575Q40.6 14.85 40.95 15.4H23.55L21.85 13.7H9.3Q8.6 13.7 8.15 14.15Q7.7 14.6 7.7 15.3V34.7Q7.7 35.25 7.975 35.6Q8.25 35.95 8.7 36.2L13.6 19.1H45.7L41 35.65Q40.7 36.5 40.075 36.95Q39.45 37.4 38.55 37.4ZM9.85 36.3H39.65L44.2 20.2H14.4ZM9.85 36.3 14.4 20.2 9.85 36.3ZM7.7 15.4V15.3Q7.7 14.6 7.7 14.15Q7.7 13.7 7.7 13.7V15.4Z"/></svg>
